X: 35682
T: Sailor's Wife, The
R: jig
M: 6/8
K: Gmajor
|:CDE D2 C|c2 d e2 f|gfe dcB|GBG FDB,|
CDE D2 C|c2 d e2 f|gfe dcB|c3 c3:|
|:efg efg|efg gfe|dBf dBf|def fed
efg gfe|def fed|cde dcB|c3 c3:|

